X:10
T:Bobbing Joe. (p)1651.PLFD.010
M:6/4
L:1/4
Q:3/4=80
S:Playford, Dancing Master,1st Ed.,1651.
O:England
H:1651.
Z:Chris Partington.
K:C
A2 e e2 d|e>fg d>c B|A2 B c>dB|Ae2 A3:|
|:B d2 G3|B d2 G3|A2 B c>BA| c>de A3|]
